Catalina-light/actions/22/hint.svg

<svg viewBox="0 0 22 22" xmlns="http://www.w3.org/2000/svg">
<defs>
<style id="current-color-scheme" type="text/css">.ColorScheme-Text {
        color:#4d4d4d
      }</style>
</defs>
<path class="ColorScheme-Text" d="m13.924 3.5c-0.13397 0-0.23812 0.0587-0.3125 0.17773l-0.60156 1.084c-0.67699-0.12644-1.3476-0.18945-2.0098-0.18945-2.0015 0-3.8461 0.50566-5.5352 1.5176-1.689 1.0121-3.1037 2.3921-4.2422 4.1406-0.14891 0.23082-0.22266 0.48679-0.22266 0.76953s0.0738 0.53898 0.22266 0.76953c0.65465 1.0193 1.4316 1.931 2.3281 2.7344 0.89658 0.80369 1.8755 1.4478 2.9394 1.9316-0.32739 0.55794-0.49023 0.88139-0.49023 0.9707 0 0.13397 0.0587 0.23812 0.17773 0.3125 0.90768 0.52096 1.4068 0.78125 1.4961 0.78125 0.13383 0 0.23811-0.0587 0.3125-0.17773l0.54687-0.99414c0.78877-1.4062 1.9647-3.5157 3.5274-6.3281 1.5625-2.8125 2.7344-4.9176 3.5156-6.3164 7e-3 -0.0148 0.01-0.0495 0.01-0.10156 0-0.12657-0.0584-0.22599-0.17773-0.30078-0.0222-0.0148-0.0939-0.0581-0.2168-0.12891-0.12277-0.0705-0.24009-0.14004-0.3516-0.20703-0.1115-0.067-0.23503-0.13439-0.36914-0.20508-0.13397-0.0707-0.24913-0.12917-0.3457-0.17382-0.0969-0.0447-0.16405-0.0664-0.20117-0.0664zm3.2031 2.9688-0.70312 1.25c1.2425 0.85562 2.2928 1.9495 3.1484 3.2812-0.90014 1.3988-2.0225 2.5404-3.3652 3.4258-1.3432 0.88576-2.8035 1.3955-4.3809 1.5293l-0.82617 1.4726c1.6519 0 3.2122-0.35174 4.6816-1.0586 1.4694-0.70658 2.7629-1.7007 3.8789-2.9805 0.52082-0.60274 0.92652-1.143 1.2168-1.6191 0.14877-0.25301 0.22266-0.50926 0.22266-0.76953 0-0.26041-0.0738-0.51638-0.22266-0.76953-0.42424-0.70671-0.96246-1.3925-1.6133-2.0547s-1.3303-1.2307-2.0371-1.707zm-10.445 0.5918c-0.45384 0.7737-0.68164 1.6114-0.68164 2.5117 0 0.79616 0.18222 1.5512 0.54687 2.2656 0.36466 0.71425 0.87019 1.3047 1.5176 1.7734l-0.87109 1.5742c-1.9345-0.87055-3.5232-2.266-4.7656-4.1856 1.131-1.756 2.5501-3.069 4.2539-3.9394zm9.2285 1.5742-3.125 5.6016c0.96712-0.37192 1.7442-0.98416 2.332-1.8359 0.58781-0.85192 0.88281-1.794 0.88281-2.8281 0-0.29014-0.0303-0.60257-0.0898-0.9375z" fill="currentColor"/>
</svg>

<svg xmlns="http://www.w3.org/2000/svg" viewBox="0 0 22 22">
  <defs id="defs3051">
    <style type="text/css" id="current-color-scheme">
      .ColorScheme-Text {
        color:#4d4d4d
      }
      </style>
  </defs>
 <path 
     style="fill:currentColor;fill-opacity:1;stroke:none"      
	 class="ColorScheme-Text"
        d="m 13.92383,3.5 c -0.13397,0 -0.23812,0.0587 -0.3125,0.17773 L 13.00977,4.76172 C 12.33278,4.63528 11.66219,4.57227 11,4.57227 8.99849,4.57227 7.15388,5.07793 5.46484,6.08984 3.7758,7.1019 2.36115,8.48198 1.22266,10.23047 1.07375,10.46129 1,10.71726 1,11 c 0,0.28274 0.0738,0.53898 0.22266,0.76953 0.65465,1.01932 1.43155,1.93095 2.32812,2.73438 0.89658,0.80369 1.87548,1.4478 2.93945,1.93164 C 6.16284,16.99349 6,17.31694 6,17.40625 c 0,0.13397 0.0587,0.23812 0.17773,0.3125 0.90768,0.52096 1.40678,0.78125 1.4961,0.78125 0.13383,0 0.23811,-0.0587 0.3125,-0.17773 L 8.5332,17.32813 C 9.32197,15.92196 10.49794,13.81247 12.06055,11 c 1.56246,-2.81247 2.73439,-4.91764 3.51562,-6.31641 0.007,-0.0148 0.01,-0.0495 0.01,-0.10156 0,-0.12657 -0.0584,-0.22599 -0.17773,-0.30078 -0.0222,-0.0148 -0.0939,-0.0581 -0.2168,-0.12891 C 15.06887,4.08184 14.95155,4.0123 14.84004,3.94531 14.72854,3.87831 14.60501,3.81092 14.4709,3.74023 14.33693,3.66953 14.22177,3.61106 14.1252,3.56641 14.0283,3.52171 13.96115,3.50001 13.92403,3.50001 Z m 3.20312,2.96875 -0.70312,1.25 c 1.24246,0.85562 2.29282,1.94947 3.14844,3.28125 -0.90014,1.39877 -2.0225,2.54044 -3.36524,3.42578 -1.34315,0.88576 -2.80346,1.39546 -4.38086,1.5293 L 11,17.42773 c 1.65192,0 3.21219,-0.35174 4.68164,-1.05859 1.46945,-0.70658 2.76288,-1.70074 3.87891,-2.98047 0.52082,-0.60274 0.92652,-1.14297 1.21679,-1.61914 C 20.92611,11.51652 21,11.26027 21,11 21,10.73959 20.9262,10.48362 20.77734,10.23047 20.3531,9.52376 19.81488,8.83797 19.16406,8.17578 18.51324,7.51359 17.8338,6.94505 17.12695,6.46875 Z M 6.68164,7.06055 C 6.2278,7.83425 6,8.67199 6,9.57227 c 0,0.79616 0.18222,1.55124 0.54687,2.26562 0.36466,0.71425 0.87019,1.30467 1.51758,1.77344 L 7.19336,15.18555 C 5.25884,14.315 3.6702,12.91959 2.42773,11 3.55869,9.24397 4.9778,7.93096 6.68164,7.06055 Z m 9.22852,1.57422 -3.125,5.60156 c 0.96712,-0.37192 1.74422,-0.98416 2.33203,-1.83594 C 15.705,11.54847 16,10.60637 16,9.57227 16,9.28213 15.9697,8.9697 15.9102,8.63477 Z"
     />
</svg>
